PortableApps/LibreOfficePortable/App/libreoffice/help/media/icon-themes/cmd/lc_renameobject.svg

<svg viewBox="0 0 24 24" xmlns="http://www.w3.org/2000/svg"><path d="m10.5 2a8.5 8.5 0 0 0 -8.5 8.5 8.5 8.5 0 0 0 8.5 8.5 8.5 8.5 0 0 0 5.5-2.03125v-2.96875h-2.035156c-1.071781 0-1.964844-.893061-1.964844-1.964844v-.070312c0-1.071781.893063-1.964844 1.964844-1.964844h5.017578a8.5 8.5 0 0 0 -8.482422-8z" fill="#eac282"/><path d="m13.964844 11c-.534081 0-.964844.430763-.964844.964844v.07031c0 .534083.430763.964846.964844.964846h3.035156v8h-3c-.554 0-1 .446-1 1s.446 1 1 1h8c.554 0 1-.446 1-1s-.446-1-1-1h-3v-8h3.035156c.534081 0 .964844-.430763.964844-.964844v-.07031c0-.534083-.430763-.964846-.964844-.964846z" fill="#4d82b8"/></svg>

<svg xmlns="http://www.w3.org/2000/svg" viewBox="0 0 24 24">
  <path
     style="fill:#eac282"
     d="M 10.5 2 A 8.5 8.5 0 0 0 2 10.5 A 8.5 8.5 0 0 0 10.5 19 A 8.5 8.5 0 0 0 16 16.96875 L 16 14 L 13.964844 14 C 12.893063 14 12 13.106939 12 12.035156 L 12 11.964844 C 12 10.893063 12.893063 10 13.964844 10 L 18.982422 10 A 8.5 8.5 0 0 0 10.5 2 z "
     />
  <path
     style="fill:#4d82b8"
     d="M 13.964844,11 C 13.430763,11 13,11.430763 13,11.964844 v 0.07031 C 13,12.569237 13.430763,13 13.964844,13 H 17 v 8 h -3 c -0.554,0 -1,0.446 -1,1 0,0.554 0.446,1 1,1 h 8 c 0.554,0 1,-0.446 1,-1 0,-0.554 -0.446,-1 -1,-1 h -3 v -8 h 3.035156 C 22.569237,13 23,12.569237 23,12.035156 v -0.07031 C 23,11.430763 22.569237,11 22.035156,11 Z"
     />
</svg>
